packages/components/icon/src/assets/icons/written-request.svg

<svg width="24" height="24" viewBox="0 0 24 24" fill="none" xmlns="http://www.w3.org/2000/svg">
<path fill-rule="evenodd" clip-rule="evenodd" d="M16.8626 15.9948H12.2417V3H16.8626V15.9948ZM10.6581 11.374H3V9.63843H10.6581V11.374ZM20.9194 11.374H18.468V9.63843H20.9194V11.374ZM10.6581 14.845H3V13.1095H10.6581V14.845ZM20.9194 14.845H18.468V13.1095H20.9194V14.845ZM10.6581 18.3161H3V16.5806H10.6581V18.3161ZM14.563 20.8326L12.2417 16.7975H16.8626L14.563 20.8326Z" fill="currentColor"/>
</svg>

<svg viewBox="0 0 24 24" fill="none" xmlns="http://www.w3.org/2000/svg"><path fill-rule="evenodd" clip-rule="evenodd" d="M16.863 15.995h-4.621V3h4.62v12.995Zm-6.205-4.621H3V9.638h7.658v1.736Zm10.261 0h-2.451V9.638h2.451v1.736Zm-10.26 3.471H3v-1.736h7.658v1.736Zm10.26 0h-2.451v-1.736h2.451v1.736Zm-10.26 3.471H3v-1.735h7.658v1.735Zm3.904 2.517-2.321-4.035h4.62l-2.299 4.035Z" fill="currentColor"/></svg>
